X: 35825
T: Saltón De Meres
R: reel
M: 4/4
K: Dmajor
A|:dfed cABd|ABde fedA|dfed cABd|1 ABde d3 A:|2 ABde d3c||
|:BdfB AdfA|gfed ecdc|BdfB AdfB|1 ABde d3c:|2 ABde d4||

